X: 39784
T: That's Right Too!
R: reel
M: 4/4
K: Dmajor
|:D2 EF ED D2|d2 ef edBA|D2 FA FEED|BcdD FE E2|
D2 FA FEED|d2 ef edfd|BD D2 Bd d2|AFEF D4:|
|:afef d2 dB|A2 FD EDDb|afef d2 da|efae f2 fe|
d2 ef edBA|BcdD FE E2|BD D2 Bd d2|AFEF D4:|

